X: 2
T: Karis Pers Polska
O: trad
R: hambo-polska
Z: John Chambers <jc@trillian.mit.edu>
N: Possibly the best-known hambo-polska tune.  The first part is sometimes not repeated.
M: 3/4
L: 1/8
K: E
|: "E"B2 Bc B>A | A2 GE G>B | e2 ef e>d | "A"d2 cA c2 | "F#m"f2 fg f>e | "B7"e2 dB d>f | b2 ba g>f | "E"e>f ga b2 ||
|| "E"B2 Bc B>A | A2 GE G>B | e2 ef e>d | "A"d2 cA c2 | "F#m"f2 fg f>e | "B7"e2 dB d>f | "B7"b2 bg a>f | "E"ez e4 :|
|: "A"a2 fa f>a | "E"g>f ed e>g | "B7"f>e dB c>d | "E"e>f ga b2 | "A"a2 fa f>a | "E"g>f ed e>g | "B7"f>e dB c>d | "E"ez e4 :|
